.icons/oomox-ad/48x48/apps/system-suspend-hibernate.svg

<svg xmlns="http://www.w3.org/2000/svg" width="48" height="48" version="1">
 <circle fill="#9f65d3" cx="24" cy="24" r="20"/>
 <path opacity=".2" d="m24 12c-7.1797 0-13 5.8203-13 13s5.8203 13 13 13 13-5.8203 13-13-5.8203-13-13-13zm0 3c5.5228 0 10 4.4772 10 10s-4.4772 10-10 10-10-4.4772-10-10 4.4772-10 10-10zm0 6a4 4 0 0 0 -4 4 4 4 0 0 0 4 4 4 4 0 0 0 4 -4 4 4 0 0 0 -4 -4z"/>
 <path fill="#fff" d="m24 11c-7.1797 0-13 5.8203-13 13s5.8203 13 13 13 13-5.8203 13-13-5.8203-13-13-13zm0 3c5.5228 0 10 4.4772 10 10s-4.4772 10-10 10-10-4.4772-10-10 4.4772-10 10-10zm0 6a4 4 0 0 0 -4 4 4 4 0 0 0 4 4 4 4 0 0 0 4 -4 4 4 0 0 0 -4 -4z"/>
 <path fill="#fff" opacity=".2" d="m24 4a20 20 0 0 0 -20 20 20 20 0 0 0 0.0215 0.582 20 20 0 0 1 19.978 -19.582 20 20 0 0 1 19.979 19.418 20 20 0 0 0 0.021 -0.418 20 20 0 0 0 -20 -20z"/>
 <path opacity=".2" d="m43.979 24.418a20 20 0 0 1 -19.979 19.582 20 20 0 0 1 -19.978 -19.418 20 20 0 0 0 -0.022 0.418 20 20 0 0 0 20 20 20 20 0 0 0 20 -20 20 20 0 0 0 -0.021 -0.582z"/>
</svg>

<svg xmlns="http://www.w3.org/2000/svg" width="48" height="48" version="1">
 <circle style="opacity:0.2" cx="24" cy="25" r="20"/>
 <circle style="fill:#673ab7" cx="24" cy="24" r="20"/>
 <path style="opacity:0.1;fill:#ffffff" d="M 24,4 A 20,20 0 0 0 4,24 20,20 0 0 0 4.0215,24.582 20,20 0 0 1 23.9995,5 20,20 0 0 1 43.9785,24.418 20,20 0 0 0 43.9995,24 a 20,20 0 0 0 -20,-20 z"/>
 <path style="opacity:0.2" d="M 24,11 A 14,14 0 0 0 10,25 14,14 0 0 0 24,39 14,14 0 0 0 38,25 14,14 0 0 0 24,11 Z m 0,4 A 10,10 0 0 1 34,25 10,10 0 0 1 24,35 10,10 0 0 1 14,25 10,10 0 0 1 24,15 Z m 0,6 a 3.9999997,3.9999997 0 0 0 -4,4 3.9999997,3.9999997 0 0 0 4,4 3.9999997,3.9999997 0 0 0 4,-4 3.9999997,3.9999997 0 0 0 -4,-4 z"/>
 <path style="fill:#ffffff" d="M 24,10 A 14,14 0 0 0 10,24 14,14 0 0 0 24,38 14,14 0 0 0 38,24 14,14 0 0 0 24,10 Z m 0,4 A 10,10 0 0 1 34,24 10,10 0 0 1 24,34 10,10 0 0 1 14,24 10,10 0 0 1 24,14 Z m 0,6 a 3.9999997,3.9999997 0 0 0 -4,4 3.9999997,3.9999997 0 0 0 4,4 3.9999997,3.9999997 0 0 0 4,-4 3.9999997,3.9999997 0 0 0 -4,-4 z"/>
</svg>
